X:114
T:Castell Towyn - Towyn Castle
M:3/4
L:1/4
Q:90
C:Trad.
S:Davidsons Musical Miracles 1859
R:Waltz
K:D
A | d A G | F E D | E A G | F E D | E
A A | A/^G/ A/B/ c/A/ | B/c/ A ^G | A2 :||:
A | d d d | c c c | B B/c/ d/B/ | A2 =G
| F d F | G2 F | E/F/ D C | D2 :||
